svgs/sharp-solid/earth-europe.svg

<svg xmlns="http://www.w3.org/2000/svg" viewBox="0 0 512 512"><!--! Font Awesome Pro 6.6.0 by @fontawesome - https://fontawesome.com License - https://fontawesome.com/license (Commercial License) Copyright 2024 Fonticons, Inc. --><path d="M454 320l-22 0-48-48 0-80 32 0 0-32-64 0 0 48-80 0-16 0 0 32-64 0 0-32 80-80 0-16-48 0 0-32 32-32c114.9 0 208 93.1 208 208c0 22.3-3.5 43.8-10 64zm-13.4 32C408.2 414.1 345.4 457.8 272 463.4l0-31.4-64 0-48-48 0-112 144 0 48 48 32 0 32 32 24.6 0zM256 512c8.8 0 17.6-.4 26.2-1.3L256 512zm26.2-1.3C411.3 497.6 512 388.6 512 256C512 114.6 397.4 0 256 0c0 0 0 0 0 0C114.6 0 0 114.6 0 256C0 383.5 93.2 489.3 215.3 508.8c13.3 2.1 26.9 3.2 40.7 3.2zM187.3 123.3l-32 32L144 166.6 121.4 144l11.3-11.3 32-32L176 89.4 198.6 112l-11.3 11.3z"/></svg>

<svg xmlns="http://www.w3.org/2000/svg" viewBox="0 0 512 512"><!--! Font Awesome Pro 6.4.2 by @fontawesome - https://fontawesome.com License - https://fontawesome.com/license (Commercial License) Copyright 2023 Fonticons, Inc. --><path d="M454 320H432l-48-48V192h32V160H352v48H272 256v32H192V208l80-80V112H224V80l32-32c114.9 0 208 93.1 208 208c0 22.3-3.5 43.8-10 64zm-13.4 32C408.2 414.1 345.4 457.8 272 463.4V432H208l-48-48V272H304l48 48h32l32 32h24.6zM256 512c8.8 0 17.6-.4 26.2-1.3L256 512zm26.2-1.3C411.3 497.6 512 388.6 512 256C512 114.6 397.4 0 256 0c0 0 0 0 0 0C114.6 0 0 114.6 0 256C0 383.5 93.2 489.3 215.3 508.8c13.3 2.1 26.9 3.2 40.7 3.2M187.3 123.3l-32 32L144 166.6 121.4 144l11.3-11.3 32-32L176 89.4 198.6 112l-11.3 11.3z"/></svg>
